icons/linear-ele-symbol-rank-arrow-four.svg

<svg xmlns="http://www.w3.org/2000/svg" width="32px" height="32px" viewBox="0 0 32 32" version="1.1">
    <title>linear-ele-symbol-rank-arrow-four</title>
    <g id="linear-ele-symbol-rank-arrow-four" stroke-width="1" fill-rule="evenodd">
        <path d="M16.7071068,2.79289322 L19.7071068,5.79289322 C20.0976311,6.18341751 20.0976311,6.81658249 19.7071068,7.20710678 C19.3165825,7.59763107 18.6834175,7.59763107 18.2928932,7.20710678 L17,5.915 L17,15 L26.085,15 L24.7928932,13.7071068 C24.4324093,13.3466228 24.4046797,12.7793918 24.7097046,12.3871006 L24.7928932,12.2928932 C25.1834175,11.9023689 25.8165825,11.9023689 26.2071068,12.2928932 L29.2071068,15.2928932 C29.5976311,15.6834175 29.5976311,16.3165825 29.2071068,16.7071068 L26.2071068,19.7071068 C25.8165825,20.0976311 25.1834175,20.0976311 24.7928932,19.7071068 C24.4023689,19.3165825 24.4023689,18.6834175 24.7928932,18.2928932 L26.085,17 L17,17 L17,26.084 L18.2928932,24.7928932 C18.6533772,24.4324093 19.2206082,24.4046797 19.6128994,24.7097046 L19.7071068,24.7928932 C20.0976311,25.1834175 20.0976311,25.8165825 19.7071068,26.2071068 L16.7071068,29.2071068 C16.3165825,29.5976311 15.6834175,29.5976311 15.2928932,29.2071068 L12.2928932,26.2071068 C11.9023689,25.8165825 11.9023689,25.1834175 12.2928932,24.7928932 C12.6834175,24.4023689 13.3165825,24.4023689 13.7071068,24.7928932 L15,26.086 L15,17 L5.915,17 L7.20710678,18.2928932 C7.56759074,18.6533772 7.59532028,19.2206082 7.29029539,19.6128994 L7.20710678,19.7071068 C6.81658249,20.0976311 6.18341751,20.0976311 5.79289322,19.7071068 L2.79289322,16.7071068 C2.40236893,16.3165825 2.40236893,15.6834175 2.79289322,15.2928932 L5.79289322,12.2928932 C6.18341751,11.9023689 6.81658249,11.9023689 7.20710678,12.2928932 C7.59763107,12.6834175 7.59763107,13.3165825 7.20710678,13.7071068 L5.915,15 L15,15 L15,5.915 L13.7071068,7.20710678 C13.3466228,7.56759074 12.7793918,7.59532028 12.3871006,7.29029539 L12.2928932,7.20710678 C11.9023689,6.81658249 11.9023689,6.18341751 12.2928932,5.79289322 L15.2928932,2.79289322 C15.6834175,2.40236893 16.3165825,2.40236893 16.7071068,2.79289322 Z" id="&#36335;&#24452;" fill-rule="nonzero" />
    </g>
</svg>

<svg xmlns="http://www.w3.org/2000/svg" viewBox="0 0 32 32"><path fill="currentColor" d="m16.707 2.793 3 3a1 1 0 1 1-1.414 1.414L17 5.915V15h9.085l-1.292-1.293a1 1 0 0 1-.083-1.32l.083-.094a1 1 0 0 1 1.414 0l3 3a1 1 0 0 1 0 1.414l-3 3a1 1 0 0 1-1.414-1.414L26.085 17H17v9.084l1.293-1.291a1 1 0 0 1 1.32-.083l.094.083a1 1 0 0 1 0 1.414l-3 3a1 1 0 0 1-1.414 0l-3-3a1 1 0 0 1 1.414-1.414L15 26.086V17H5.915l1.292 1.293a1 1 0 0 1 .083 1.32l-.083.094a1 1 0 0 1-1.414 0l-3-3a1 1 0 0 1 0-1.414l3-3a1 1 0 1 1 1.414 1.414L5.915 15H15V5.915l-1.293 1.292a1 1 0 0 1-1.32.083l-.094-.083a1 1 0 0 1 0-1.414l3-3a1 1 0 0 1 1.414 0"/></svg>
